src/assets/Shield.svg

<svg width="28" height="32" viewBox="0 0 28 32" fill="none" xmlns="http://www.w3.org/2000/svg">
<path fill-rule="evenodd" clip-rule="evenodd" d="M13.5649 31.8619C13.7421 31.9544 13.9402 32.0015 14.1384 31.9999C14.3365 31.9984 14.533 31.9497 14.7118 31.8556L20.4204 28.8039C22.0392 27.941 23.3069 26.9761 24.2959 25.8527C26.4463 23.4051 27.6206 20.2813 27.5997 17.0602L27.532 6.43517C27.5256 5.21138 26.7218 4.11938 25.533 3.72243L14.9131 0.159303C14.2737 -0.0572148 13.573 -0.0525079 12.9448 0.170286L2.36516 3.8605C1.18284 4.27314 0.393559 5.37298 0.400003 6.59834L0.467655 17.2155C0.488595 20.4413 1.70312 23.551 3.88895 25.9735C4.88764 27.0812 6.1666 28.032 7.80315 28.8808L13.5649 31.8619ZM12.0537 19.3743C12.2921 19.6034 12.6014 19.7163 12.9106 19.7132C13.2199 19.7116 13.5276 19.5955 13.7627 19.3633L20.0013 13.213C20.47 12.7501 20.4652 12.0064 19.9916 11.5498C19.5164 11.0933 18.7513 11.0964 18.2826 11.5593L12.8929 16.8718L10.6861 14.7505C10.211 14.294 9.44745 14.2987 8.9771 14.7615C8.50837 15.2244 8.5132 15.9681 8.98838 16.4246L12.0537 19.3743Z" fill="#00F6FF"/>
</svg>

<svg xmlns="http://www.w3.org/2000/svg" fill="none" viewBox="0 0 28 32">
  <path fill="#00F6FF" fill-rule="evenodd" d="M13.56 31.86a1.22 1.22 0 0 0 1.15 0l5.71-3.06a13.5 13.5 0 0 0 3.88-2.95 13.2 13.2 0 0 0 3.3-8.79l-.07-10.62a2.9 2.9 0 0 0-2-2.72L14.91.16a3.02 3.02 0 0 0-1.97.01L2.37 3.86A2.9 2.9 0 0 0 .4 6.6l.07 10.62a13.2 13.2 0 0 0 3.42 8.75c1 1.11 2.28 2.06 3.91 2.91l5.76 2.98Zm-1.5-12.49c.23.23.54.35.85.34.31 0 .62-.11.85-.35L20 13.21c.47-.46.47-1.2 0-1.66a1.23 1.23 0 0 0-1.72 0l-5.39 5.32-2.2-2.12a1.23 1.23 0 0 0-1.71.01c-.47.46-.47 1.2 0 1.66l3.07 2.95Z" clip-rule="evenodd"/>
</svg>
